X:1
T:Title
%%score 1 2
L:1/8
Q:1/4=80
M:3/4
K:G
V:1 treble nm="Strings 1, SOPRANO ALTO"
V:2 bass nm="Strings 1, TENOR BASS"
V:1
 z2 z2 [B,D][B,D] | [B,G]3 [DF] [CE][B,D] | [CF]2 [CF]2 [CD][CD] | [CA]3 [Ec] [DB][CA] | %4
w: 1.~With~ Thine~|eye,~ O~ Sav ior,~|guide~ me~ Through~ my~|pil grim age~ be|
 [B,G]4 [B,D][B,D] | [B,G]3 [DF] [CE][B,D] | [CF]2 [CF]2 [CD][CD] | [CA]3 [Ec] [DB][CA] | %8
w: low;~ In~ Thy~|se cret~ pres ence~|hide~ me,~ On~ my~|heart~ Thy~ grace~ be|
 [B,G]4 [Gd][Gd] | [Ge]3 [Gc] [Ge][Ge] | [Gd]2 [GB]2 [Gd][Gd] | [Gd]3 [GB] [DA][EG] | [FA]4 DD | %13
w: stow.~ * *|||||
 [DB]3 [DB] [=Fd][Fd] | [=Fd]2 [Ec]2 [EB][EA] | [DG]3 [DB] [DB][Q:1/4=80][CA][Q:1/4=12] | %16
w: |||
 [B,G]4 z2 |] %17
w: |
V:2
 z2 z2 [G,,G,][G,,G,] | [G,,G,]3 [G,,G,] [G,,G,][G,,G,] | [A,,D,]2 [A,,D,]2 [D,F,][D,F,] | %3
 [D,F,]3 [D,F,] [D,G,][D,F,] | [G,,G,]4 [G,,G,][G,,G,] | [G,,G,]3 [G,,G,] [G,,G,][G,,G,] | %6
 [A,,D,]2 [A,,D,]2 [D,F,][D,F,] | [D,F,]3 [D,F,] [D,G,][D,F,] | [G,,G,]4 [G,B,][G,B,] | %9
 [C,C]3 [E,C] [C,C][C,C] | [G,B,]2 [G,D]2 [G,B,][G,B,] | [G,B,]3 [G,D] [F,D][E,^C] | %12
 [D,D]4 [D,F,][D,F,] | [G,,G,]3 [G,,G,] [B,,G,][B,,G,] | [C,G,]2 [C,G,]2 [C,G,][C,C] | %15
 [D,B,]3 [D,G,] [D,G,][D,F,] | [G,,G,]4 z2 |] %17

